!!!!SEGMENT: pl-wnifc--13846--042_anonim--piesni-polskie-i-ruskie-ludu-galicyjskiego-42-o-boze-moj-boze-ktoz-ludziom-dogodzi.krn
!!!cenid: 18xx:3264
!!!COM: Anonim
!!!COM-rismID: pe30004985
!!!CDT:
!!!CNT:
!!!GTL: Pieśni polskie i ruskie ludu galicyjskiego
!!!OTL: 42. O! Boże mój, Boże któz, ludziom dogodzi
!!!OMV: 042
!!!PDT: 1833
!!!AGN:
!!!SMS-siglum: PL-Wnifc
!!!SMS-shelfmark: 13846
!!!SMS-shelfwork: 001-042 G
!!!SMS-variant:
!!!SMS-altvar:
!!!NIFC-rismSourceID: 1001036701
!!!NIFC-rismChildID: 1001036929
!!!NIFC-islandoraID: nifc:210326
!!!URL-pdf-islandora: https://repozytorium.nifc.pl/islandora/object/nifc%3A210326/datastream/PDF/view
!!!URL-scan:
!!!IIIF:
!!!ONB-nifc:
!!!OMD: Krakowiak.
!!!AIN: 1 piano 1 vox
!!!key: G
**kern	**kern	**kern	**text
*part2	*part2	*part1	*part1
*group2	*group2	*group1	*group1
*staff3	*staff2	*staff1	*staff1
*I"[FORTEPIAN.]	*I"[FORTEPIAN.]	*I"[GŁOS.]	*
*Ipiano	*Ipiano	*Ivox	*
*ICklav	*ICklav	*ICvox	*
*IGacmp	*IGacmp	*IGsolo	*
*clefF4	*clefG2	*clefG2	*
*k[f#]	*k[f#]	*k[f#]	*
*G:	*G:	*G:	*
*M2/4	*M2/4	*M2/4	*
=1-	=1-	=1-	=1-
*^	*	*	*
!	!	!	!LO:TX:a:B:t=D.b.B\n68.	!
8G/L	4G\ 4GG\	8b\L 8g\	8b\	O!
8D/	.	8cc\J 8a\	8cc\	Bo-
8G/	4G\ 4GG\	4dd\ 4b\	4dd\	-że
8D/J	.	.	.	.
=2	=2	=2	=2	=2
8G/L	4G\ 4GG\	8ddS<\ 8b\	8dd\	mój,
8D/	.	8.dd\L 8.b\	8.dd\	Bo-
8G/	4G\ 4GG\	.	.	.
.	.	16cc#X/K 16a#X/	16cc#X\	-że
8D/J	.	8dd\J 8b\	8dd\	któz
!!pagebreak:original
=3	=3	=3	=3	=3
*	*	*	*^	*
*	*	*	*cue	*	*
!	!	!	!	!LO:TX:t=P:problem:text:cue size	!
8G/L	4G\ 4GG\	8gg\L 8b\	8gg/	8g\	któz
8D/	.	8aa\ 8ccn\	8aa/	8a/	lu-
8G/	4G\ 4GG\	8bb\ 8dd\	8.bb/L	8.b\L	-dziom
8D/J	.	8aa\J 8cc\	.	.	.
.	.	.	16aa/Jk	16a\Jk	.
=4	=4	=4	=4	=4	=4
8G/L	4G\ 4GG\	16aa\LL 16a\	(<16aa/LL	16a\LL	do-
.	.	16gg\JJ 16g\	16gg/JJ)	16g\JJ	.
8D/	.	4gg\ 4g\	8gg/	4g\	-go-
8G/	4G\ 4GG\	.	8ryy	.	.
8D/J	.	8gg\ 8g\	8gg/	8g\	-dzi,
=5	=5	=5	=5	=5	=5
8DD/L	4DD\	8ff#\L 8a\	8ff#/	8f#\	we-
!	!	!	!LO:SIC:v:s=8gg/	!	!
8D/	.	8gg\J 8g\	8ff#/	8g\	-so-
8DD/	4DD\	8.aa\L 8.a\	&(8aa/	(>8.a\	-łam
8D/J	.	.	8ryy	.	.
.	.	16b\Jk 16g#X\	.	16b\)&)	.
*	*	*	*Xcue	*	*
*v	*v	*	*v	*v	*
!!linebreak:original
=6	=6	=6	=6
8D/L 8FF#/	8cc\ 8a\	8cc\	lub
8DD/	([8cc\L 8a\	8.cc\	smut-
8D/ 8FF#/	16cc\]L 16a\	.	.
.	16b\J 16g#X\)	(16b\	-na,
8DD/J	8cc\J 8a\|	8cc\)	.
=7	=7	=7	=7
8D/L 8FF#/	8b\L 8g#X\|	8b\	wszyst-
8DD/	8cc\J 8a\|	8cc\	-ko
8D/ 8FF#/	(8.ee\L 8.cc\	(8.ee\L	im
8DD/J	.	.	.
.	16dd\Jk 16b\)	16dd\Jk)	.
=8	=8	=8	=8
*	*^	*	*
8D/L 8GG/	8ryy	8cc\ 8a\	8cc\	za-
8DD/	4b/	4gn\	4b\	-szko-
8D/ 8GG/	.	.	.	.
8DD/J	8g/	8ryy	8g/	-dzi
*	*v	*v	*	*
==	==	==	==
*-	*-	*-	*-
!!!system-decoration: g1{(g2)}
!!!RDF**kern: > = above
!!!RDF**kern: < = below
!!!RDF**kern: | = vertical stroke
!!!ENC: Katarzyna Serwa
!!!END: 2021-11-10
!!!YEC: Copyright 2022 Narodowy Instytut Fryderyka Chopina (https://polishscores.org)
!!!YEM: License CC-BY-4.0 (https://creativecommons.org/licenses/by/4.0)
